X:1
T:Bach - Prelude in A Minor.
T:J.S. Bach Prelude in A Minor BWV 569
%%score { ( 1 2 5 ) | ( 3 6 ) | ( 4 7 ) }
L:1/8
Q:1/4=75
M:3/4
K:C
V:1 treble nm="Organ"
V:2 treble 
V:5 treble 
V:3 bass 
V:6 bass 
V:4 bass 
V:7 bass 
V:1
 z/ a/g/f/ e2 z/ f/e/d/ | c2 z/ G/F/E/ F2 | z/ F/E/D/ E2 z/ D/C/B,/ | z2 z de^G | A2 z =gfe | %5
 f2 z fed | e2 z edc | d2 z ba^g | ae f4- | ff e4- | ee d4- | dd c4- | cc B4 | c2 z gag | %14
 f2 z fgf | e2 z efe | d2 z ded | c2 z cdc | B2 z BcB | A2 z ABA | G2 z ^FGA | B2 z GAB | %22
 c2 z cBA | B2 z AB^F | G2 z ^FGF | G^FGc PF2 | E2 z gag | =f2 z fgf | e2 z efe | d2 z ded | %30
 c2 z cdc | B2 z fed | c2 z aba | =g2 z gag | ^f2 z fgf | e2 z ^ded | e2 z ^ded | e2 z ^ded | %38
 e2 z ^fe^d | e2 z2 z2 | z6 | z6 | z6 | z c' ^f4 | z b e4 | z a ^d4 | z g ^c4 | z ^f B4- | %48
 Be[Q:1/4=100] P^G3 ^F/G/ | A2 z d=cd | Bb P^d3 ^c/d/ | e2 z aga | =fa PB3 A/B/ | %53
 c2[Q:1/4=90] z fef | d2 z ede | c2 z dcd | _B2 z cBc | A2 z _BAB | G3 A/_B/4c/4 PG>B | A2 z dcd | %60
 _B2 z cBc | A2 z _BAB | G2 z GFE | F2 z GFE | F2 z _BAG | A2 z ed^c | df _b4- | be a4- | ad g4- | %69
 g2 f4- | f2 e4- | e2 d4- | dd ^c2 z =c- | cc _B2 z =e | z e d2 z a | z a g2 z2 | z a g2 z2 | %77
 z a g2 z2 | z a g2 z2 | z g f2 z2 | z g f2 z2 | z g f2 z2 | f2 z2 g2 | g3 g f2- | f3 e2 f | %85
 d=c _B3 A | ^Ga ^g3 =f | ef e3 d | cB A4- | A3 A ^G2 | A2 z fef | d3 ede | c3 dcd | B3 c_Bc | %94
 A3 =BAB | ^G2 z A z B | cB z BcB | A=G/^F/ c4- | cc B4 | z e A4- | AA G4 | z c ^F4 | z ^FED E2 | %103
 z ^FED E2 | z B,^C^D E2 | z/ E3/2 E2 z/ E^D/ | E=d =c3 B | ^Ag ^f3 e | d2 z d ^c2 | B2 z a ^g2 | %110
 ^f^c ^d4 | z e ^c4 | z d ^A4 | B2 ^g4- | g2 ^f4- | f2 =f4 |[Q:1/4=100] ^fa PT^c4 | d^f PT^A4 | %118
 Bd PT^F4 | GB PT^D4 | Eg PTB4 |[Q:1/4=90] c2 z gag | f2 z fgf | e2 z efe | d2 z dcB | c2 ^f4- | %126
 f2 e4- | e2 ^d4 | e2 z aga | =f2 z gfg | e2 z efe | d2 z dcB | c2 z2 z [Ac] | B2 z2 z [G_B] | %134
 A2 z2 z [^FA] | z/ A/^G/^F/ G2 z/ B/A/^G/ | A/E/C/E/ z2 z ^f | ^d z z2 z e | ^c z z2 z =d | %139
 d/B/^G/B/ z2 z [Bd] | =c6 | B6 | A6 | ^G4[Q:1/4=80] z/ =f/e/d/ | e2 z efe | ^d2 z =ded | %146
 ^c2[Q:1/4=75] z[Q:1/4=70] =c2[Q:1/4=65][Q:1/4=60] c | z cBA PA>^G | %148
 !breath!A[Q:1/4=80] a/e/[Q:1/4=90] f/^c/[Q:1/4=100]d/A/[Q:1/4=110] _B/=G/[Q:1/4=120]A/E/ | %149
[Q:1/4=110] F/^C/[Q:1/4=100]D/[I:staff +1]A,/[Q:1/4=95][I:staff -1] x4[Q:1/4=90][Q:1/4=70][Q:1/4=60] | %150
[Q:1/4=55] z[Q:1/4=50] e[Q:1/4=45]d[Q:1/4=40]^c[Q:1/4=30] d2[Q:1/4=20] | ^c2 z2 z2 |] %152
V:2
 z2 z/ c/B/A/ ^G2 | z/ A/=G/F/ E2 z/ E/D/^C/ | D2 x4 | C2 z ^GAD | E2 z2 z A | A2 z2 z ^G | %6
 A2 z2 z A | ^G2 z fed | e2 z cdc | B2 z BcB | A2 z ABA | G2 z GAG | F2 z AGF | E2 z2 z2 | x2 z4 | %15
 x2 z4 | x2 z4 | z =G ^F4- | F^F E4- | EE ^D4 | z ^D E4- | E^D E4- | E^D E4- | E^D E4- | E^D E3 D | %25
 E^D E3 D | E2 z BcB | A2 z ABA | G2 z GAG | F2 z FGF | E2 z EFE | D2 z DCB, | z2 z cdc | %33
 B2 z BcB | A2 z ABA | G2 z ABA | B2 z ABA | B2 z ABA | B2 z cBA | B2 z BcG | A2 z AB^F | %41
 G2 z GAE | =F2 z FGD | E2 z EDC | D2 z DCB, | C2 z CB,A, | B,2 z B,A,G, | A,2 x4 | x2 z E=DE | %49
 =CA, P^F3 E/F/ | =G2 z BAB | GE P^c3 B/c/ | d z z G=FG | EC c4- | cc _B4- | B_B A4- | AA G4- | %57
 GG F4- | FFEF FE | FF, F4- | F2 E4- | E2 D4- | D2 ^C4 | D2 z ED^C | D2 z GFE | F2 z GFE | %66
 F2 z FGF | E2 z EFE | D2 z DED | C2 z A_BA | G2 z GAG | F2 z =B/A/ B2 | A4 z A- | AA G2 z G | %74
 z G F2 z c | z c _B2 z2 | z c _B2 z2 | z c _B2 z2 | z =e e2 z2 | z _B A2 z2 | z _B A2 z2 | %81
 z _B A2 z2 | _B2 z2 B2 | A2 z =e2 e | d3 _BAG | F2 z F E2 | D2 z D C2 | B,2 z ^G,A,B, | C2 z CDE | %89
 FE D3 D | C2 z2 z2 | x2 z4 | z A D4 | z G C4 | z F =B,4- | B,2 z E z D | CF z DED | C2 z G^FE | %98
 D2 z ^DE=D | ^C2 z CD=C | B,2 z B,A,B, | C2 z C B,2 | z CB,A, B,2 | z CB,A, B,2 | z2 z2 z ^C | %105
 z/ E/=D/=C/ B,2- B,A, | G,2 z G ^F2 | E2 z B ^A2 | B=A G3 ^F | ^Ed ^c3 B | A2 z A- A/=c/B/A/ | %111
 ^G2 z =G- G/B/A/G/ | ^F2 z E- E/G/F/E/ | D2 z DED | ^C2 z CDC | B,2 z B,^CB, | A,2 z2 z =G | %117
 ^F2 z2 z E | D2 z2 z =C | B,2 z2 z A, | G,2 z2 z =D | CC c4- | cB, B4- | B2 A4- | A2 ^G4 | %125
 A2 z cdc | B2 z BcB | A2 z ABA | GG c4- | c2 B4- | B2 A4- | A2 ^G4 | %132
 z/ A/=G/=F/ E/D/[I:staff +1]C/B,/[I:staff -1] z ^F | %133
 G/G/=F/E/ D/C/[I:staff +1]B,/A,/[I:staff -1] z E | %134
 F/F/E/D/ C/=B,/[I:staff +1]A,/G,/[I:staff -1] z ^D | x2 z/ =F/E/=D/ E2- | E z z2 z c | %137
 B/^F/^D/F/ z2 z G | A/E/^C/E/ z2 z A | ^G z z2 z G | z/ B/A/^G/ A4 | z/ A/=G/^F/ G4 | %142
 z/ G/=F/E/ F>E D2 | z/ E/D/C/ B,2- B,2 | z E A4- | A2 ^G4- | G2 ^F2 F2 | z E=FE D2 | %148
 [^CE] z z2 z2 | x6 | z _BAG AP^G | A2 z2 z2 |] %152
V:3
 x6 | x6 | x2 z/ =C/B,/A,/ ^G,2 | A,2 z B,CB, | C2 z ED^C | D2 z D=CB, | C2 z CB,A, | %7
 B,2 z[K:treble] ^GAB | c2 z ABA | =G2 z GAG | F2 z FGF | E2 z EFE | D2 z FED | C2 z EFE | %14
 D2 z DED | C2 z CDC | B,2[K:bass] z B,CB, | A,2 z A,B,A, | G,2 z G,A,G, | ^F,2 z F,G,F, | %20
 E,2 z ^D,E,^F, | G,2 z E,^F,G, | A,2 z A,G,^F, | G,2 z ^F,G,^D, | E,2 z ^D, E,2- | %25
 E,B,,/A,,/ G,,A,, B,,2 | E,,2 z2 z2 | x6 | x6 | x6 | x6 | x6 | A,2 ^F4- | F2 E4- | E2 ^D4 | %35
 E2[K:treble] z ^FGF | G2 z ^FGF | G2 z ^FGF | G2 z AG^F | G2[K:bass] E4- | E^C D4- | DB, =C4- | %42
 CA, B,4- | B,2 A,4- | A,2 G,4- | G,2 ^F,4- | ^F,2 E,4- | x2 z ^F,^G,A, | ^G,2 z2 z2 | z6 | z6 | %51
 z6 |[K:treble] z6 | z2 z AGA | F2 z GFG | E2 z FEF | D2 z EDE | C2 z DCD |[K:bass] _B,2 C4 | %59
 F,2 z2 z2 | z G, C,4 | z F, _B,,4 | z E, A,,4 | z D, D,,4- | D,,D, D,,4- | D,,D, D,,4- | %66
 D,,2 z DED | C2 z CDC | _B,2 z B,CB, | A,2 z CDC | _B,2 z B,CB, | A,2 z2[K:treble] z F | %72
 E4 z _E- | E_E D2 z _B, | z _B, A,2 z _E | z _E D2 z2 | z _E D2 z2 | z _E D2 z2 | z =E A2 z2 | %79
 z ^C D2 z2 | z ^C D2 z2 | z ^C D2 z2 | D2 z2 _E2 | z =E A2 z A, | D3 D ^C2 | D2 z D =C2 | %86
 =B,2 z B, A,2 |[K:bass] ^G,2 z E,^F,G, | A,2 z A,B,C | DC B,3 E, | A,2 z DCD | B,3 CB,C | %92
 A,3 B,A,B, | G,3 A,G,A, | F,3 G,F,G, | E,2 z E, z ^G, | A,2 z A,2 ^G, | A,2 z B,A,=G, | %98
 ^F,2 z F,G,F, | E,2 z E,^F,E, | ^D,2 z G,^F,G, | A,2 z2 z A, | z A,G,^F, G,2 | z A,G,^F, G,2 | %104
 z G,A,^F, G,2 | z2 z/ A,/G,/^F,/ G,F, | E,2 z E =D2 | ^C2 z D C2 | B,2 z B, A,2 | %109
 ^G,2 z ^F, ^E,2 | ^F,2 z2 B,2 | E,2 z2 A,2 | D,2 ^C,2 ^F,2 | B,,2 z B,^CB, | =A,2 z A,B,A, | %115
 ^G,2 z G,A,G, | ^F,2 z2 z E | D2 z2 z ^C | B,2 z2 z A, | G,2 z2 z ^F, | E,2 z2 z =F, | %121
 E,2 z E,F,E, | D,2 z D,E,D, | C,2 z C,D,C, | B,,2 z E,D,E, | A,,2[K:treble] z ABA | =G2 z GAG | %127
 ^F2 z FGF | E2 z2 z2 |[K:bass] z D G,4 | z C ^F,4 | z B, E,4 | A,2 z2 z D | G,2 z2 z C | %134
 F,2 x2 ^F,2 | z/ C/B,/A,/ B,2 z/ D/C/B,/ | C z A,/E,/C,/E,/ z A | ^F z z2 z =G | E z z2 z =F | %139
 B, z z2 z [B,E] | z2[K:treble] z/ =G/^F/E/ F2 | z2 z/ =F/E/D/ E2 | z2 z/ E/D/C/ B,2 | %143
[K:bass] z2 z/ A,/^G,- G,2 | C2 z CDC | B,2 z B,CB, | A,2 z A,2 A, | z A,DC B,2 | A, z z2 z2 | %149
 x2 _B,/G,/A,/E,/ F,/^C,/D,/^G,,/ |[K:treble] z EFG FPD | E2 z2 z2 |] %152
V:4
!fff! A,,6- | A,,6- | A,,6- | A,,A, A,,4- | A,,A, A,,4- | A,,A, A,,4- | A,,A, A,,4- | A,,A, A,,4- | %8
 A,,2 z2 z2 | z6 | z6 | z6 | z6 | z C C,4- | C,B, B,,4- | B,,A, A,,4- | A,,^G, ^G,,4 | A,,2 z2 z2 | %18
 z6 | z6 | z6 | z6 | z6 | z6 | z6 | z6 | z E, E,,4- | E,,D, D,,4- | D,,C C,4- | C,B, B,,4- | %30
 B,,A, A,,4- | A,,^G, ^G,,4 | z A, ^D,4 | z =G, ^C,4 | z ^F, B,,4 | z E, G,,4 | z ^F, A,,4 | %37
 z G, B,,4 | z E, B,2 z B,, | E,E,, z G,A,E, | ^F,2 z F,G,D, | E,2 z E,=F,C, | D,2 z D,E,B,, | %43
 C,2 z C,D,A,, | B,,2 z B,,C,G,, | A,,2 z A,,B,,^F,, | G,,2 z G,,A,,E,, | ^F,,2 z B,,A,,B,, | %48
 E,,2 z2 z2 | z6 | z6 | z6 | z6 | z6 | z6 | z6 | z6 | z6 | z6 | z2 z _B,,A,,B,, | %60
 G,,2 z A,,G,,A,, | F,,2 z G,,F,,G,, | E,,2 z A,,G,,A,, | D,,2 z2 z2 | z6 | z6 | z6 | z6 | z6 | %69
 z A, D,4 | z G, ^C,4 | z D, ^G,,4 | A,,3 =G, ^F,2 | G,3 _B, ^C,2 | D,3 D ^F,2 | G,3 _B,^F,G, | %76
 D,3 G,D,_E, | _B,,3 _B,G,A, | ^C,3 E,A,,_B,, | =F,,3 F,^C,D, | G,,3 F,^C,D, | A,,3 F,^C,D, | %82
 _B,,DA,_B,_E,G, | ^C,4 D,2 | z F,_B,G,A,A,, | D,2 z2 z2 | z6 | z6 | z6 | z6 | z A, A,,4- | %91
 A,,=G, =G,,4- | G,,2 F,,4- | F,,2 E,,4- | E,,2 D,,4- | D,,D, C,2 B,,2 | A,,D, E,3 E, | %97
 A,,2 z2 z2 | z D, G,,4- | G,,G,, ^F,,4 | z B,, E,,4- | E,,E,, ^D,,4 | E,,4- E,,^F,, | %103
 G,,4- G,,A,, | B,,4- B,,^A,, | B,,6 | E,,2 z2 z2 | z6 | z6 | z6 | z6 | z6 | z6 | z B, ^E,4 | %114
 z A, ^D,4 | z ^G, ^C,4 | ^F,,2 z A,=G,A, | D,2 z ^F,E,F, | B,,2 z D,=C,D, | G,,2 z B,,A,,B,, | %120
 E,,2 z G,,=F,,G,, | C,,2 z2 z2 | z6 | z C ^F,4 | z B, E,4 | z A, ^D,4 | z G, ^C,4 | z ^F, B,,4 | %128
 E,E,, z =F,E,F, | D,2 z E,D,E, | C,2 z C,B,,C, | B,,2 z E,D,E, | A,,2 z2 z D, | G,,2 z2 z C, | %134
 F,,2 z2 z B,, | E,,2 z2 E,2 | A,,2 z2 A,,2 | A,,2 z2 =G,,2 | G,,2 z2 =F,,2 | E,,2 z2 E,,2 | %140
 A,,2 z2 z/ D/C/D/ | G,2 z2 z/ C/B,/C/ | =F,2 z2 z/ B,/A,/B,/ | E,4 E,,2- | E,,6- | z B, E,4 | %146
 z A, ^D,4 | E,6- | E, z z2 z2 | x2 z4 | z =G,F,E, F,2 | E,2 z2 z2 |] %152
V:5
 x6 | x6 | x6 | x6 | x5 G | F2 x4 | x6 | x6 | x6 | x6 | x6 | x6 | x6 | x6 | x6 | x6 | x6 | x6 | %18
 x6 | x6 | x6 | x6 | x6 | x6 | x6 | x6 | x6 | x6 | x6 | x6 | x6 | x6 | x6 | x6 | x6 | x6 | x6 | %37
 x6 | x6 | x6 | x6 | x6 | x6 | x6 | x6 | x6 | x6 | x6 | x6 | x6 | x6 | x6 | x6 | x6 | x6 | x6 | %56
 x6 | x6 | x6 | x6 | x6 | x6 | x6 | x6 | x6 | x6 | x6 | x6 | x6 | x6 | x6 | x6 | x6 | x6 | x6 | %75
 x6 | x6 | x6 | x6 | x6 | x6 | x6 | x6 | x6 | x6 | x6 | x6 | x6 | x6 | x6 | x6 | x6 | x6 | x6 | %94
 x6 | x6 | x6 | x6 | x6 | x6 | x6 | x6 | x6 | x6 | x6 | x6 | x6 | x6 | x6 | x6 | x6 | x6 | x6 | %113
 x6 | x6 | x6 | x6 | x6 | x6 | x6 | x6 | x6 | x6 | x6 | x6 | x6 | x6 | x6 | x6 | x6 | x6 | x6 | %132
 x6 | x6 | x6 | x6 | x6 | x6 | x6 | x6 | x6 | x6 | x6 | x6 | x6 | x6 | x6 | x6 | x6 | x6 | x6 | %151
 x6 |] %152
V:6
 x6 | x6 | x6 | x6 | x6 | x6 | x6 | x2 z[K:treble] DCB, | A,2 z2 z2 | x6 | x6 | x6 | x6 | x6 | x6 | %15
 x6 | x2[K:bass] x4 | x6 | x6 | x6 | x6 | x6 | x6 | x6 | x6 | x6 | x6 | x6 | x6 | x6 | x6 | x6 | %32
 x6 | x6 | x6 | x2[K:treble] x4 | x6 | x6 | x6 | x2[K:bass] x4 | x6 | x6 | x6 | x6 | x6 | x6 | x6 | %47
 E,2 ^D,4 | E,2 x4 | x6 | x6 | x6 |[K:treble] x6 | x6 | x6 | x6 | x6 | x6 |[K:bass] x6 | x6 | x6 | %61
 x6 | x6 | x6 | x6 | x6 | x6 | x6 | x6 | x6 | x6 | x4[K:treble] x2 | x6 | x6 | x6 | x6 | x6 | x6 | %78
 x6 | x6 | x6 | x6 | x6 | x6 | x6 | x6 | x6 |[K:bass] x6 | x6 | x6 | x6 | x6 | x6 | x6 | x6 | x6 | %96
 x6 | x6 | x6 | x6 | x6 | x6 | x6 | x6 | x6 | x6 | x6 | x6 | x6 | x6 | x6 | x6 | x6 | x6 | x6 | %115
 x6 | x6 | x6 | x6 | x6 | x6 | x6 | x6 | x6 | x6 | x2[K:treble] x4 | x6 | x6 | x6 |[K:bass] x6 | %130
 x6 | x6 | G,,2 x2 A,2 | D2 x2 G,2 | C2 z2 z B, | x6 | x4 A,,A, | B, z B,/^F,/^D,/F,/ B,,=G, | %138
 A, z A,/E,/^C,/E,/ A,,=D, | E, z E/B,/^G,/B,/ E,2 | x2[K:treble] x4 | x6 | x6 | %143
[K:bass] z2 z z/ ^F,/ E,2 | x6 | x6 | x6 | x6 | x6 | x6 |[K:treble] z ^CDE D=B, | A,2 z2 z2 |] %152
V:7
 x6 | x6 | x6 | x6 | x6 | x6 | x6 | x6 | x6 | x6 | x6 | x6 | x6 | x6 | x6 | x6 | x6 | x6 | x6 | %19
 x6 | x6 | x6 | x6 | x6 | x6 | x6 | x6 | x6 | x6 | x6 | x6 | x6 | x6 | x6 | x6 | x6 | x6 | x6 | %38
 x6 | x6 | x6 | x6 | x6 | x6 | x6 | x6 | x6 | x6 | x6 | x6 | x6 | x6 | x6 | x6 | x6 | x6 | x6 | %57
 x6 | x6 | x6 | x6 | x6 | x6 | x6 | x6 | x6 | x6 | x6 | x6 | x6 | x6 | x6 | x6 | x6 | x6 | x6 | %76
 x6 | x6 | x6 | x6 | x6 | x6 | x6 | x6 | x6 | x6 | x6 | x6 | x6 | x6 | x6 | x6 | x6 | x6 | x6 | %95
 x6 | x6 | x6 | x6 | x6 | x6 | x6 | x6 | x6 | x6 | x6 | x6 | x6 | x6 | x6 | x6 | x6 | x6 | x6 | %114
 x6 | x6 | x6 | x6 | x6 | x6 | x6 | x6 | x6 | x6 | x6 | x6 | x6 | x6 | x6 | x6 | x6 | x6 | x6 | %133
 x6 | x6 | x6 | x6 | x6 | x6 | x6 | x6 | x6 | x6 | x6 | x6 | E,,6- | E,,6- | E,,6 | A,, z z2 z2 | %149
 x2 z4 | A,,6- | A,,2 z2 z2 |] %152

